!!!OTL: Zhouzongli yongyuan huozai women xinzhong
!!!ARE: Asia, China,ÿGansu Yongjing
!! I, 110
!!!SCT: C1806
!!!YEM: Copyright 1995, estate of Helmut Schaffrath.
**kern
*ICvox
*Ivox
!! Mixed meters:  4/4; 6/4
*M6/4
*k[b-e-a-]
*E-:
{4ee-}
=1
{4.ff
8gg
8gg
8gg
8ff
8ff
=2
8ee-
8cc
8ee-
8ff
4ff
4r}
=3
{4ee-
8ff
8ff
8ff
16gg
16ff
8ff
16ff
16ee-
=4
16ff
16ee-
8cc
8cc
8ee-
2.ff
8cc
8bb-}
=5
*M4/4
{8ee-
16ff
16ee-
8cc
8cc
16cc
16b-
4b-
8cc
=6
8ee-
16ff
16ee-
8cc
8cc
8b-
8b-
8cc
8ee-
=7
8ff
8ee-
8.cc
16b-
4b-
[4b-
=8
2.b-]
4r}
==
!!!AGN: Xiaodiao, Yanxiqu
!! Hui
!!!ONB: ESAC (Essen Associative Code) Database: SENGANSU
!!!AMT: irregular
!!!AIN: vox
!!!EED: Helmut Schaffrath
!!!EEV: 1.0
*-
!!!ONB: Tied note syntax fixed by Craig Sapp, 2004/05/03/
